src/static/logos/gordon.svg

<?xml version="1.0" encoding="UTF-8" standalone="no"?>
<svg width="256px" height="256px" viewBox="0 0 256 256" version="1.1" xmlns="http://www.w3.org/2000/svg" xmlns:xlink="http://www.w3.org/1999/xlink" preserveAspectRatio="xMidYMid">
	<g>
		<path d="M256,128 C256,198.692 198.692,256 128,256 C57.308,256 0,198.692 0,128 C0,57.308 57.308,0 128,0 C198.692,0 256,57.308 256,128" fill="#3E4349"></path>
		<path d="M86.9908,81.7895 L86.9908,61.6095 C130.2338,54.2575 128.9368,70.5465 142.9188,105.7175 C147.7728,117.9265 160.2168,153.2855 167.8558,170.2945 C169.5858,176.3485 173.1568,176.0615 179.0998,174.4745 L179.0998,192.0605 C164.6748,198.5475 148.2528,198.4985 144.0238,182.7395 L127.9278,133.3935 L106.1618,193.6465 L76.9008,193.6465 L115.3878,104.8525 C113.4478,98.5505 110.2178,91.5725 106.4508,84.3125 C103.1348,78.1855 93.6218,78.8105 86.9908,81.7895" fill="#FFFFFF"></path>
	</g>
</svg>

<svg width="256" height="256" xmlns="http://www.w3.org/2000/svg" preserveAspectRatio="xMidYMid"><path d="M256 128c0 70.692-57.308 128-128 128C57.308 256 0 198.692 0 128 0 57.308 57.308 0 128 0c70.692 0 128 57.308 128 128" fill="#3E4349"/><path d="M86.99 81.79V61.61c43.244-7.352 41.947 8.936 55.929 44.108 4.854 12.209 17.298 47.568 24.937 64.576 1.73 6.054 5.3 5.767 11.244 4.18v17.587c-14.425 6.487-30.847 6.438-35.076-9.322l-16.096-49.346-21.766 60.254H76.9l38.487-88.794c-1.94-6.302-5.17-13.28-8.937-20.54-3.316-6.127-12.83-5.502-19.46-2.523" fill="#FFF"/></svg>
